X:1
T:Title
%%score 1 { 2 | 3 }
L:1/8
Q:1/4=103
M:4/4
K:C
V:1 treble nm="Grand Piano, Soprano"
V:2 treble nm="Choir Pad, Pristina, Elbert Fowler, 1912"
V:3 bass 
V:1
 [EG]2 [FA]>[EG] [CE]3 [EG] | [Gc]2 [Gd]>[Gd] [Ge]3 [Gc] | [FA]2 [FA]>[FA] [^Fd]2 [Fc]2 | %3
w: By~Elbert~B.~Fowler,~1912 * * * *|||
 [GB]6 z2 | [EG]2 [FA]>[EG] [CE]3 [EG] | [Gc]2 [Gd]>[_Be] [Af]3 [Ad] | [Gc]2 [FB][Ec] [Ge]2 [Fd]2 | %7
w: ||||
 [Ec]6 z2 | [Ge]2 [Ge]>[Ge] [^Ge]3 [Gd] | [Ac]2 [^Fd]>[Fc] [GB]3 [=FA] | %10
w: |||
 [EG]2 [Gc]>[Gc] [^Fe]2 [Fd]2 | [Fd]6 z2 | [Ge]2 [Ge]>[Ge] [^Ge]3 [Gd] | %13
w: |||
 [Ac]2 [Ad]>[Ae] [Af]3 [Ad] | [Gc]2 [GB][Gc] [Ge]2 [Fd]2 | [Ec]8 |] %16
w: |||
V:2
 C2 C>C G,3 C | C2 B,>B, C3 C | C2 C>C D2 D2 | D6 z2 | C2 C>C G,3 C | C2 B,>C C3 F | %6
 E2 DC B,2 B,2 | C6 z2 | C2 C>C B,3 C | E2 D>D D3 B, | C2 C>C C2 C2 | B,6 z2 | C2 C>C B,3 E | %13
 E2 D>^C D3 D | E2 DE C2 B,2 | C8 |] %16
V:3
 C,2 C,>C, C,3 C, | E,2 G,>G, z2 z E, | F,2 F,>F, D,2 D,2 | G,6 z2 | C,2 C,>C, C,3 C, | %5
 E,2 G,2 F,3 F, | G,2 G,G, [G,,G,]2 [G,,G,]2 | C,6 z2 | C,2 C,>C, E,3 E, | A,2 D,>D, G,3 G, | %10
 C,2 E,>E, D,2 D,2 | G,6 z2 | C,2 C,>C, E,3 E, | A,2 D,>C, D,3 F, | G,2 G,G, [G,,G,]2 [G,,G,]2 | %15
 C,8 |] %16

